!!!!SEGMENT: pl-wtm--a-43-185-99--001-005_fitelberg-grzegorz--piec-piesni-op-21-no-5-jasna-noc-ksiezyc-caluje-galazki-drzew.krn
!!!cenid: 19xx:95
!!!COM: Fitelberg, Grzegorz
!!!COM-rismID: pe41023683
!!!CDT: 1879-1953
!!!CNT: Polish
!!!GTL: Pięć pieśni Op. 21
!!!OTL: No. 5. Jasna noc/Księżyc całuje gałązki drzew
!!!OMV: 005
!!!PDT:
!!!AGN: Secular; Song
!!!YEC: Copyright 2022 Narodowy Instytut Fryderyka Chopina (https://polishscores.org)
!!!YEM: License CC-BY-4.0 (https://creativecommons.org/licenses/by/4.0)
!!!SMS-siglum: PL-Wtm
!!!SMS-shelfmark: A.43.185/99
!!!SMS-variant:
!!!SMS-altvar:
!!!SMS-shelfwork: 001-005 G
!!!NIFC-rismSourceID: 1001162746
!!!NIFC-rismChildID: 1001162746
!!!NIFC-islandoraID: pl-wtm:43141
!!!URL-pdf-islandora: https://repozytorium.nifc.pl/islandora/object/pl-wtm%3A43141/datastream/PDF/view
!!!URL-scan: https://polish.musicsources.pl/pl/lokalizacje/galeria/druki-muzyczne/22420/7 @EN{Scan on Polish Music Sources Website} @PL{Skany w portalu Dziedzictwo Muzyki Polskiej w otwartym dostępie}
!!!IIIF:
!!!ONB-nifc:
!!!OMD: Andante, molto tranquillo.
!!!AIN: 1 piano 1 vox
!!!key: F#
**kern	**kern	**dynam	**kern	**text	**text	**dynam
*part2	*part2	*part2	*part1	*part1	*part1	*part1
*staff3	*staff2	*	*staff1	*staff1	*staff1	*
*ICklav	*ICklav	*	*ICvox	*	*	*
*Ipiano	*Ipiano	*	*Ivox	*	*	*
*I"Klavier.	*I"Klavier.	*	*I"Singstimme.	*	*	*
*clefF4	*clefG2	*	*clefG2	*	*	*
*k[f#c#g#d#a#e#]	*k[f#c#g#d#a#e#]	*	*k[f#c#g#d#a#e#]	*	*	*
*F#:	*F#:	*	*F#:	*	*	*
*M6/8	*M6/8	*	*M6/8	*	*	*
=1	=1	=1	=1	=1	=1	=1
4ryy	16r	.	2.r	.	.	.
!	!LO:TX:a:i:t=r.	!	!	!	!	!
.	N(>16ff#/LL	p	.	.	.	.
.	16aa#/	.	.	.	.	.
.	16a#/	.	.	.	.	.
16ryy	16ff#/JJ	.	.	.	.	.
!LO:TX:a:i:t=l.	!	!	!	!	!	!
16f#>\LL	8ryy	.	.	.	.	.
16a#>\JJN)	.	.	.	.	.	.
16ryy	N(>16ff#/LL	.	.	.	.	.
8ryy	16aa#/	.	.	.	.	.
.	16a#/	.	.	.	.	.
16ryy	16ff#/JJ	.	.	.	.	.
16f#>\LL	16ryy	.	.	.	.	.
=2	=2	=2	=2	=2	=2	=2
!	!	!	!	!	!	!LO:DY:a
16a#>\JJN)	16ryy	.	8c#/	Weich	<i>Księ</i>-	p
8ryy	N(>16ff#/LL	.	.	.	.	.
!	!	!	!	!	!	!LO:HP:a
.	16aa#/	.	8e#/	küsst	-życ	<
8ryy	16a#/	.	.	.	.	.
.	16ff#/JJ	.	8f#/	die	<i>ca</i>-	.
16f#>\LL	16ryy	.	.	.	.	.
16a#>\JJN)	16ryy	.	8dd#\	Zwei-	-<i>łu</i>-	.
4ryy	(>16ff#/LL	.	.	.	.	.
.	16aa#/	.	8ddn\	-ge	-<i>je</i>	.
.	16a#/	.	.	.	.	.
.	16ff#/	.	8cc#\	der	<i>ga</i>-	[
16ryy	16f#/JJ)	.	.	.	.	.
=3	=3	=3	=3	=3	=3	=3
*^	*^	*	*	*	*	*
!	!	!	!	!	!	!	!	!LO:HP:a
(4.Dn~/	2.FF#\	16r	(<(<(<4.dn~>\ 4.b#X 4.een	pp >	(8b#X/L	wei-	-<i>łą</i>-	>
.	.	(>16ff#/LL	.	.	.	.	.	.
.	.	16aa#/	.	.	8f#/J)	.	.	.
.	.	16a#/	.	.	.	.	.	.
.	.	16ff#/	.	.	8g#/	-sse	-<i>zki</i>	.
.	.	16f#/JJ	.	.	.	.	.	.
4.C#/)	.	16a#/LL)	4.A#\))) 4.f# 4.a#	]	4a#/	Mond;	<i>drzew</i>	]
.	.	(16ff#/	.	.	.	.	.	.
.	.	16aa#/	.	.	.	.	.	.
.	.	16a#/	.	.	.	.	.	.
!	!	!	!	!	!	!	!	!LO:HP:a
.	.	16ff#/	.	.	8cc#\	ein	<i>i</i>	<
.	.	[<16f#/	.	.	.	.	.	.
*v	*v	*	*	*	*	*	*	*
=4	=4	=4	=4	=4	=4	=4	=4
4EEn/ 4En	16a#/JJ)	4.A#\ 4.f#] 4.a#	.	8cc#\L	Flü-	<i>sze</i>-	[
.	(16ff#/LL	.	<	.	.	.	.
!	!	!	!	!	!	!	!LO:HP:a
.	16aa#/	.	.	8ccn\J	.	.	>
.	16a#/	.	.	.	.	.	.
8B\	16ff#/	.	.	8b\	-stern	-<i>pcze</i>	.
.	[<16f#/	.	[	.	.	.	.
4.DD#/ 4.D#	16a#/JJ)	4.B#X\ 4.f#] 4.a#	.	4a#/	wohnt	<i>ci</i>-	]
.	(16ff#/LL	.	>	.	.	.	.
.	16aa#/	.	.	.	.	.	.
.	16a#/	.	.	.	.	.	.
.	16ff#/	.	.	8f#/	im	-<i>cho</i>	.
.	16f#/	.	]	.	.	.	.
*	*v	*v	*	*	*	*	*
!!LO:LB:g=original
=5	=5	=5	=5	=5	=5	=5
*^	*	*	*	*	*	*
!	!	!LO:TX:b:i:t=espressivo	!	!	!	!	!
(8c#/L	4.En\ 4.An 4.c#	16a#/JJ)	.	[4.ff#\	Laub,	<i>liść</i>	.
!	!	!	!LO:HP:b=2	!	!	!	!
.	.	(>16ff#/LL	<	.	.	.	.
8d#/	.	16aa#/	.	.	.	.	.
.	.	16a#/	.	.	.	.	.
8en/J	.	16ff#/	[	.	.	.	.
.	.	16f#/	.	.	.	.	.
4f#/)	4.D#\ 4.A 4.B#X	16a#/JJ)	.	4ff#\]	.	.	.
.	.	(>16ff#/LL	.	.	.	.	.
.	.	16aa#/	>	.	.	.	.
.	.	16a#/	.	.	.	.	.
8ryy	.	16ff#/	.	8f#/	als	<i>za</i>-	.
.	.	16f#/	]]	.	.	.	.
*v	*v	*	*	*	*	*	*
=6	=6	=6	=6	=6	=6	=6
*	*^	*	*	*	*	*
2.Dn:\ 2.A#: 2.B#X: 2.f#:	16a#/JJ)	4.ryy	.	4a#/	nei-	-<i>sy</i>-	.
.	(>16ff#/LL	.	.	.	.	.	.
.	16aa#/	.	.	.	.	.	.
.	16a#/	.	.	.	.	.	.
.	16ff#/	.	.	8g#/	-ge,	-<i>pia</i>	.
.	16f#/JJ)	.	.	.	.	.	.
.	16r	4.b#X~>^\ 4.een	.	16%3r	.	.	.
.	(16ff#/LL	.	.	.	.	.	.
.	16aa#/	.	.	.	.	.	.
.	16a#/	.	.	16%3f#/	als	<i>i</i>	.
.	16ff#/	.	.	.	.	.	.
.	16f#/	.	.	.	.	.	.
*	*v	*v	*	*	*	*	*
=7	=7	=7	=7	=7	=7	=7
*M7/8	*M7/8	*	*M7/8	*	*	*
*^	*^	*	*	*	*	*
!	!	!	!	!	!	!	!	!LO:HP:a
2ryy	[2FFF#/ [2FF#	16a#/JJ)	[2A#\ [2f# [2a#	pp	8c#/	schwei-	<i>ma</i>-	<
.	.	(16ff#/LL	.	.	.	.	.	.
.	.	16aa#/	.	.	8e#/	-ge	-<i>rzyć,</i>	.
.	.	16a#/	.	.	.	.	.	.
.	.	16ff#/	.	.	8f#/	sich	<i>ma</i>-	.
.	.	16f#/	.	.	.	.	.	.
.	.	16a#/JJ)	.	.	8dd#\	der	-<i>rzyć</i>	[
.	.	N(>16ff#/LL	.	.	.	.	.	.
!	!	!	!	!	!	!	!	!LO:HP:a
8.ryy	4.FFF#/] 4.FF#]	16aa#/	4.A#\] 4.f#] 4.a#]	.	4ddn\	Hain	<i>zda</i>	>
.	.	16a#/	.	.	.	.	.	.
.	.	16ff#/JJ	.	.	.	.	.	.
!LO:TX:a:i:t=l.	!	!	!	!	!	!	!	!
16f#>\LL	.	16ryy	.	.	.	.	.	.
16a#>\JJN)	.	16ryy	.	.	8dd\	zur	<i>się</i>	.
16ryy	.	NNN(16ff#/LL	.	.	.	.	.	.
*v	*v	*	*	*	*	*	*	*
*	*v	*v	*	*	*	*	*
=8	=8	=8	=8	=8	=8	=8
*M3/8	*M3/8	*	*M3/8	*	*	*
8.ryy	16aa#/	.	4cc#\	Ruh,	<i>gaj,</i>	]
.	16a#/	.	.	.	.	.
.	16ff#/JJ	.	.	.	.	.
16f#>\LL	16ryy	.	.	.	.	.
16a#>\JJNNN)	16ryy	.	8a#/	Ge-	<i>o</i>	.
16ryy	N(>16ff#/LL	.	.	.	.	.
!!LO:LB:g=original
=9	=9	=9	=9	=9	=9	=9
*M6/8	*M6/8	*	*M6/8	*	*	*
*^	*	*	*	*	*	*
!	!	!	!	!	!	!	!LO:P:a
16ryy	16ryy	16aa#/	.	[4.g#/	-lieb-	<i>lu</i>-	>
8ryy	8ryy	16a#/	.	.	.	.	.
.	.	16ff#/JJ)	.	.	.	.	.
16ryy	16f#>\LL	16ryy	.	.	.	.	.
16ryy	16a#>\JJN)	16ryy	.	.	.	.	.
16ryy	16ryy	N(>16ff#/LL	.	.	.	.	.
!LO:TX:a:i:t=l	!	!	!	!	!	!	!
(<4.ddn>^\	8.ryy	16aa#/	.	4g#/]	.	.	.
.	.	16a#/	.	.	.	.	.
.	.	16ff#/JJ	.	.	.	.	.
.	16f#>\LL	16ryy	.	.	.	.	.
.	16a#>\JJN)	16ryy	.	8f#/	-te	-<i>ba</i>	.
.	16ryy	(16ff#/LL	.	.	.	.	.
=10	=10	=10	=10	=10	=10	=10	=10
4.cc#>\)	8.ryy	16aa#/	.	4.f#/	du.	<i>ma.</i>	]
.	.	16a#/	.	.	.	.	.
.	.	16ff#/JJ)	.	.	.	.	.
!	!LO:TX:a:i:t=ritardando	!	!	!	!	!	!
.	(>[<16f#>\LL	16ryy	.	.	.	.	.
.	16f#>\_) [>16a#>	16ryy	.	.	.	.	.
.	16f#>\JJ_ 16a#>_>	([<16ff#/	.	.	.	.	.
4.ryy	4.f#>\] 4.a#>]	16ff#/LL]) 16aa#	.	4r	.	.	.
.	.	(<16ccn/	.	.	.	.	.
.	.	16ff#/	.	.	.	.	.
.	.	16aa#/J	.	.	.	.	.
!	!	!	!	!	!	!	!LO:DY:a
.	.	8cccn/J)	.	8f#/	Der	<i>Je</i>-	pp
*v	*v	*	*	*	*	*	*
=11||	=11||	=11||	=11||	=11||	=11||	=11||
*k[]	*k[]	*	*k[]	*	*	*
*	*	*	*	*	*	*
!	!LO:TX:b:i:t=sempre \ntranquillo	!	!	!	!	!
.	(>8qdd/	p	.	.	.	.
16BBB-X~</ 16BB-X	8ddn~\) 8dddn 8fffn	.	4b-X\	Wei-	-<i>zio</i>-	.
(16F\LL	.	.	.	.	.	.
!	!LO:TX:b:i:t=molto espressivo	!	!	!	!	!
16A\	(8ff\L	.	.	.	.	.
16B-X\	.	.	.	.	.	.
16g\	8aa\	.	8d/	-her	-<i>ra</i>	.
16g-X\	.	.	.	.	.	.
16f\	8bb-X\	.	8f/	ruht	<i>drze</i>-	.
16en\	.	.	.	.	.	.
16Bn\	8ggg\	.	8a/	und	.	.
16c\	.	.	.	.	.	.
16d\JJ	8ggg-X\J	.	8b-\	die	-<i>mie</i>	.
*clefG2	*	*	*	*	*	*
16f/LL	.	.	.	.	.	.
=12	=12	=12	=12	=12	=12	=12
16a/	8fff\L	.	4cc\	Wei-	<i>toń,</i>	.
16b-X/	.	.	.	.	.	.
16gg/	8eeen\	.	.	.	.	.
16gg-X/	.	.	.	.	.	.
16ff/	8bb-X\J	.	8dd\	-de	<i>lsni</i>	.
16een/	.	.	.	.	.	.
!	!	!	!	!	!	!LO:HP:a
16b-/	8.ccc\L	.	8gg-X\	schim-	<i>łą</i>-	>
16cc/	.	.	.	.	.	.
16dd/JJ	.	.	8ff\	-mert;	-<i>ka,</i>	]
16ff\LL	[8.ddd\J	.	.	.	.	.
16aa\	.	.	8r	.	.	.
16bb-X\JJ	.	.	.	.	.	.
!!LO:LB:g=original
=13	=13	=13	=13	=13	=13	=13
4gg\ 4ggg	4.ddd\_	.	4r	.	.	.
[8gg-X\ [8ggg-X	.	.	8r	.	.	.
4gg-\]) 4ggg-]	4ddd\])	.	4.dd\	ihr	<i>jej</i>	.
8ryy	8r	.	.	.	.	.
*clefF4	*	*	*	*	*	*
=14	=14	=14	=14	=14	=14	=14
.	(>[<8qff/ [<8qaa-X	.	.	.	.	.
16FFF~/ 16FF	8ff~\)] 8aa-] 8fff	.	[4.dd\	Schat-	<i>cień</i>	.
(16C\LL	.	.	.	.	.	.
!	!LO:TX:b:i:t=molto espressivo	!	!	!	!	!
16E\	(8cc\L	.	.	.	.	.
16F\	.	.	.	.	.	.
16d\	8ee\	.	.	.	.	.
16d-X\	.	.	.	.	.	.
16c\	8ff\	.	4dd\]	.	.	.
16Bn\	.	.	.	.	.	.
16F\	8ddd\	.	.	.	.	.
16G\	.	.	.	.	.	.
16A-X\JJ	8ddd-X\J	.	8dd-X\	-ten	<i>ma</i>-	.
*clefG2	*	*	*	*	*	*
16c/LL	.	.	.	.	.	.
=15	=15	=15	=15	=15	=15	=15
16e/	8ccc\L	.	8cc\	flim	-<i>ja</i>-	.
16f/	.	.	.	.	.	.
16dd/	8bbn\	.	8bn\	mert	.	.
16dd-X/	.	.	.	.	.	.
16cc/	8ff\J	.	8f/	in	-<i>czy</i>	.
16bn/	.	.	.	.	.	.
16f/	8.gg\L	.	4f/	sei-	<i>w sre</i>-	.
16g/	.	.	.	.	.	.
16a-X/JJ	.	.	.	.	.	.
16cc\LL	[8.aa-X\J	.	.	.	.	.
16ee\	.	.	8g/	-ner	-<i>brze</i>	.
16ff\JJ	.	.	.	.	.	.
=16	=16	=16	=16	=16	=16	=16
4dd\ 4ddd	4.aa-\_	.	4a-X/	Flut,	<i>wód,</i>	.
[8dd-X\ [8ddd-X	.	.	8r	.	.	.
4dd-\]) 4ddd-]	8aa-\])	.	8r	.	.	.
!	!	!	!	!	!	!LO:HP:a
.	8r	.	8f/	und	<i>wia</i>-	<
8ryy	8cc\ 8ccc	.	8a-/	der	-<i>ter</i>	[[
*clefF4	*	*	*	*	*	*
=17	=17	=17	=17	=17	=17	=17
*	*^	*	*	*	*	*
4.E-X\ 4.An 4.c 4.f	(8cc/L [8ff	(4an\	pp >	(8cc\L	Wind	<i>pła</i>-	.
.	16cc#X/L 16ff]	.	.	8b\	.	.	.
.	16dd/ 16ff#X	.	.	.	.	.	.
!	!	!	!	!	!	!	!LO:HP:a
.	16dd#X/ 16gg	8a#X\	.	8b-X\J)	.	.	>
.	16ee/JJ 16gg#X	.	.	.	.	.	.
4D\ 4A 4Bn 4f	4ff#/) 4aa	4b\)	]	8an/	weint	-<i>cze</i>	]
!	!	!	!	!	!	!	!LO:HP:a
.	.	.	.	8g/	in	<i>sród</i>	<
16r	8r	8r	.	8f/	den	<i>gę</i>-	[[
(16E-~\LL	.	.	.	.	.	.	.
*	*v	*v	*	*	*	*	*
!!LO:PB:g=original
=18	=18	=18	=18	=18	=18	=18
*^	*	*	*	*	*	*
!	!	!	!	!	!	!	!LO:DY:a
16c\ 16f 16a	4.ryy	8cc\L 8ff 8aa 8ccc	.	4ff\	Bäu-	-<i>stwi</i>-	>
16Bn\	.	.	.	.	.	.	.
16a-X\	.	8dd\ 8ddd	.	.	.	.	.
16g\	.	.	.	.	.	.	.
16B-X\	.	8ee-X\J 8eee-X	.	4a/	-men.	-<i>ny</i>	]
16g-X\JJ)	.	.	.	.	.	.	.
8f/L	4.D\ 4.A 4.Bn	8ff\L 8aa 8bbn 8fff	.	.	.	.	.
8g-/J	.	8gg\	.	8r	.	.	.
!	!	!LO:TX:b:i:t=molto ritardando_:ext=s:ext=ud	!	!LO:TX:a:i:t=molto ritardando_:ext=s:ext=ud	!	!	!
8ryy	.	8a\J 8aa	.	8f/	Wir	<i>i</i>	.
=19	=19	=19	=19	=19	=19	=19	=19
*	*	*	*	*^	*	*	*
2.D-X:\ 2.A: 2.Bn: 2.f:	4rff	8bn\L 8bbn	.	8a/L	8a\	träu-	<i>śni</i>	.
.	.	8dd-X\ 8ddd-X	.	8g/J	8g\	.	<i>nam</i>	.
.	8rdd	8ee-X\J 8eee-X	.	8f/	8ryy	-men,	<i>się</i>	.
*	*clefG2	*	*	*	*	*	*	*
.	4.bn/ 4.ee-X	4ff\ 4fff	.	8a/	8ryy	träu-	<i>śen.</i>	.
.	.	.	.	8f/	8ryy	-men.	.	.
.	.	8gg\ 8ggg	.	8r	8ryy	.	.	.
*v	*v	*	*	*v	*v	*	*	*
*clefF4	*	*	*	*	*	*
=20	=20	=20	=20	=20	=20	=20
.	(>[<16qqaa/LL	.	.	.	.	.
!	!LO:TX:b:i:t=Tempo	!	!LO:TX:a:i:t=Tempo	!	!	!
.	[<16qqfff/JJ	.	.	.	.	.
*	*^	*	*	*	*	*
16FFF/ 16FF	2aa~\]) 2fff] 2aaa	4ryy	pp	2.r	.	.	.
NN(>16C\LL	.	.	.	.	.	.	.
16E\	.	.	.	.	.	.	.
16F\JJ	.	.	.	.	.	.	.
!	!LO:TX:b:i:t=r.	!	!	!	!	!	!
4ryy	.	16d</LL	.	.	.	.	.
.	.	16d-X</	.	.	.	.	.
.	.	16c</	.	.	.	.	.
.	.	16Bn</JJ	.	.	.	.	.
!LO:TX:b:i:t=l.	!	!	!	!	!	!	!
!LO:TX:a:t=P:problem=mixed beam	!	!	!	!	!	!	!
16F/LL	4ryy	4ryy	.	.	.	.	.
16G/	.	.	.	.	.	.	.
16A/	.	.	.	.	.	.	.
16c/	.	.	.	.	.	.	.
*	*v	*v	*	*	*	*	*
=21	=21	=21	=21	=21	=21	=21
16e>\	8ryy	.	2.r	.	.	.
16f>\JJ	.	.	.	.	.	.
4ryy	16dd/LL	.	.	.	.	.
.	16dd-X/	.	.	.	.	.
.	16cc/	.	.	.	.	.
!	!LO:TX:b:i:t=ritenuto e	!	!	!	!	!
.	16bn/JJ	.	.	.	.	.
16f>\LL	8ryy	.	.	.	.	.
16g>\	.	.	.	.	.	.
16a>\	4ryy	.	.	.	.	.
16cc>\	.	.	.	.	.	.
16ee>\	.	.	.	.	.	.
16ff>\JJ	.	.	.	.	.	.
!!LO:LB:g=original
=22	=22	=22	=22	=22	=22	=22
!	!LO:TX:b:i:t=morendo	!	!	!	!	!
2.ryy	4ddd/	.	4r	.	.	.
.	4ddd-X/	.	8r	.	.	.
.	.	.	4r	.	.	.
.	4ccc/NN)	.	.	.	.	.
!	!	!	!	!	!	!LO:DY:a
.	.	.	8a/	Die	<i>I</i>	p
=23	=23	=23	=23	=23	=23	=23
*^	*^	*	*	*	*	*
!	!	!LO:TX:b:i:t=espressivo	!	!	!	!	!	!
([4.D-X/	(2.FF\	([4.cc-X/ [4.ee-X	(2.d-X\	p	4ff\	Wei-	<i>dal</i>	.
.	.	.	.	.	8an/	-ten	<i>prze</i>-	.
8D-/L]	.	8cc-X/L] 8ee-]	.	.	8a/	leuch-	-<i>zro</i>-	.
8E-X/	.	8b-X/ 8dd	.	.	8b-X\	-ten	-<i>cza</i>	.
8En/J	.	8b--/J 8dd-X	.	.	8dd-X\	Be-	<i>ja</i>-	.
=24	=24	=24	=24	=24	=24	=24	=24	=24
4F#X/	2.EE\)	2a-X/ 2cc	(2.c\)	<	2cc\	-ru-	-<i>śnie</i>-	.
2G#X/	.	.	.	.	.	.	.	.
!	!	!	!	!	!	!	!	!LO:HP:a
.	.	[4g/ [4cc-X	.	[[	4bn\	-hi-	.	>
=25	=25	=25	=25	=25	=25	=25	=25	=25
2.A/)	2.E\	2.g/]) 2.cc-]	4.d-X\	>	4.g/	-gung;	-<i>je</i>	]
.	.	.	4.e-X\)	.	4r	.	.	.
.	.	.	.	]]	8r	.	.	.
*	*	*v	*v	*	*	*	*	*
=26	=26	=26	=26	=26	=26	=26	=26
.	[<8qEEE-X\ [<8qEE-X	.	.	.	.	.	.
[2.B-X/ [2.d-X	2.EEE-\_ 2.EE-_	[2.f-X/ [>2.gn [2.cc-X	pp	4r	.	.	.
.	.	.	.	8f-X/	die	<i>i</i>	.
.	.	.	.	8f-/	Nie-	<i>zdo</i>-	.
.	.	.	.	8e-X/	-der-	.	.
.	.	.	.	8d-X/	-ung	-<i>lin</i>	.
!!LO:LB:g=original
=27	=27	=27	=27	=27	=27	=27	=27
2.B-/] 2.d-]	2.EEE-\_ 2.EE-_	2.f-/_ 2.g_> 2.cc-_	.	8f-X/	hebt	<i>wsta</i>-	.
.	.	.	.	8g-X/	bleich	-<i>je</i>	.
.	.	.	.	8gn/	den	<i>wil</i>-	.
.	.	.	.	16%3b-X\	feuch-	-<i>got</i>-	.
.	.	.	.	16%3cc-X\	-ten	-<i>ny</i>	.
=28	=28	=28	=28	=28	=28	=28	=28
4.B-X/ 4.c#X	4.EEE-\] 4.EE-]	4.f-/] 4.g] 4.cc-]	.	4.dd-X\	Schlei-	<i>we</i>-	.
16r	4.ryy	4ryy	ppp	4.ee-X\	-er	-<i>lon</i>	.
NN(>[<16E-X\LL	.	.	.	.	.	.	.
16E-\J_ [<16B-X	.	.	.	.	.	.	.
8.E-\J_ 8.B-_ [8.d-X	.	.	.	.	.	.	.
.	.	16f-X/LL	.	.	.	.	.
.	.	[16f-/JJ [16gn	.	.	.	.	.
*v	*v	*	*	*	*	*	*
=29	=29	=29	=29	=29	=29	=29
*	*^	*	*	*	*	*
2.E-\_ 2.B-_ 2.d-_	2.f-\_<NN) 2.g_< [<2.cc-X	4rggg	.	[2.ff-X\	hin	<i>mgły</i>	.
.	.	8rggg	.	.	.	.	.
.	.	(>4.dd-X~/ 4.ccc-X 4.eee-X	>	.	.	.	.
=30	=30	=30	=30	=30	=30	=30	=30
2.E-\_ 2.B-_ 2.d-_	2.f-\_< 2.g_< 2.cc-_<	4.ee-X~/ 4.bb-X 4.ddd-X	.	2.ff-\_	.	.	.
.	.	[>4.ff-X~/) [>4.bb-- [>4.ddd-X	.	.	.	.	.
=31	=31	=31	=31	=31	=31	=31	=31
!	!	!	!	!	!	!	!LO:HP:a
8E-\] 8B-] 8d-]	8f-\] 8g] 8cc-]	8ff-/] 8bb--] 8ddd-]	.	4.ff-\]	.	.	<
8r	8r	8ryy	.	.	.	.	.
8r	8r	2ryy	.	.	.	.	.
4r	4r	.	]	4.ee-X\	zum	<i>ku</i>	.
(8AAA-X~/ 8AA-X	(8G-X~>/ 8g-X	.	mf	.	.	.	.
*	*v	*v	*	*	*	*	*
=32	=32	=32	=32	=32	=32	=32
!	!LO:TX:b:i:t=molto espress.	!	!	!	!	!
8c-X~\L) 8e-X 8a-X	8cc~\L) 8ee-X 8aa-X 8ccc	.	(2.aa-X\	Him-	<i>nie</i>-	[
8d\	8dd\	.	.	.	.	.
8d-X\J	8dd-X\J	.	.	.	.	.
8F~\L 8c- 8dn 8f	8a-X~\L 8cc 8ddn 8aa-	.	.	.	.	.
8B-X\	8b-X\	.	.	.	.	.
16A-X\Jk	8a-\J	.	.	.	.	.
(16AAA-X/ 16AA-X	.	.	.	.	.	.
!!LO:LB:g=original
=33	=33	=33	=33	=33	=33	=33
8G-X~\L) 8c 8e-X 8a-X	8cc~\L 8ee-X 8aa-X 8ccc	.	4.aa-X\	.	.	.
8f\	8ff\	.	.	.	.	.
8g-X\J	8gg-X\J	.	.	.	.	.
!	!	!	!	!	!	!LO:HP:a
4.F~\ 4.c 4.d 4.f	8g~\L 8cc 8dd 8aa-	.	4aa-\)	.	.	>
.	8b-X\ 8bb-X	.	.	.	.	.
.	8cc\J 8ccc	.	8cc\	-mels-	-<i>bu</i>	.
=34	=34	=34	=34	=34	=34	=34
*^	*	*	*	*	*	*
2.F-X;\ 2.c: 2.dn: 2.a-X:	4.rGGyy	8ddn\L 8dddn	.	4.a-X/	-saum.	<i>mknie</i>	]
.	.	8ff-X\ 8fff-X	.	.	.	.	.
.	.	8gg-X\J 8ggg-X	.	.	.	.	.
*	*clefG2	*	*	*	*	*	*
.	4.ddn\ 4.gg-X	8aa-X\ 8aaa-X	>	4r	.	.	.
.	.	4bb-X\ 4bbb-X	.	.	.	.	.
!	!	!	!	!	!	!	!LO:DY:a
.	.	.	]]	8a-/	O	<i>nasz</i>	pp
*v	*v	*	*	*	*	*	*
*clefF4	*	*	*	*	*	*
=35	=35	=35	=35	=35	=35	=35
.	[16qqccc/LL	.	.	.	.	.
.	[16qqaaa-X/JJ	.	.	.	.	.
8AAA-X~/ 8AA-X	2.ccc\_ 2.aaa-_ [2.cccc	pp	[4.ee-X\	hin	<i>sen</i>	.
(8E-X\L	.	.	.	.	.	.
8G\	.	.	.	.	.	.
8A-X\	.	.	4ee-\]	.	.	.
8f\	.	.	.	.	.	.
8f-X\J	.	.	8r	.	.	.
*clefG2	*	*	*	*	*	*
=36	=36	=36	=36	=36	=36	=36
8e-X/L	2.ccc\] 2.aaa-] 2.cccc]	.	2.r	.	.	.
8g/	.	.	.	.	.	.
8a-X/J	.	.	.	.	.	.
8ff\L	.	.	.	.	.	.
8ff-X\	.	.	.	.	.	.
[<8ee-X\J	.	.	.	.	.	.
=37	=37	=37	=37	=37	=37	=37
[2.a-X~\) 2.ee-_ [2.aa-X	[2.ccc~\ [2.aaa-X [2.cccc	.	4r	.	.	.
.	.	.	8r	.	.	.
!	!	!	!	!	!	!LO:DY:a
.	.	.	4.e-X/	o	<i>ach,</i>	pp
=38	=38	=38	=38	=38	=38	=38
2.a-;\] 2.ee-] 2.aa-]	2.ccc;\] 2.aaa-] 2.cccc]	.	2.e-X;/	Traum.	<i>sen.</i>	.
==	==	==	==	==	==	==
*-	*-	*-	*-	*-	*-	*-
!!!system-decoration: s1{(s2,s3)}
!!!RDF**kern: < = below
!!!RDF**kern: > = above
!!!RDF**kern: N = linked
!!!RDF**kern: NN = linked
!!!RDF**kern: NNN = linked
!!!ENC: Berenika Jozajtis
!!!END: 2023-10-22
!!!EED: Marta Chmielewska
!!!EEV: 2023-11-14
